X: 650
T: Entarine Peş Olam
C: K. Yazgan
O: Turkey
F: http://compmusic.upf.edu/node/140
N: segah--turku--oynak--entarine_pes--afyon-sandikli
N: makam= segah
N: form= turku
N: usul= oynak = 9/8
M: 9/8
L: 1/16
K: C _1/4B _1/4e ^f 
Q: 1/4=132
%%MIDI tuningsystem comma53
Bcdc dcde dcd2 efd4 | AB cdcB cdcB c2d2 B4  | 
w:  ARANAĞME  |   | 
Bcdc dcde dcd2 efd4 | AB cdcB cdcB c2d2 B4  | 
w:  ARANAĞME  |   | 
d2g2 fge2 edcd efd2 z2 | d2 g2fg e2ed cdef d2z2  | 
w:  En ta *  *  ri ne  *  peş_ *  o *  lam    |  En ta *  *  ri ne  *  peş_ *  o *  lam    | 
B2c2 {d}cBc2 {d}cBBc d2B2 z2 | B2 c2{d}cB c2{d}cB Bcd2 B2z2  | 
w:  Yâr  ya *  *  *  nı *  na  *  eş_ *  o lam    |  Yâr  ya *  *  *  nı *  na  *  eş_ *  o lam    | 
B2d2 c2d2 dcd2 efd4 | B2 d2c2 d2dc d2ef d4  | \
w:  Si ga ra  tu tan  *  e *  *  le    |  Si ga ra  tu tan  *  e *  *  le    | 
B2c2 {d}cBc2 cBBc dBB2 z2 | 
w:  Şın gır *  *  *  dak lı  *  maş_ *  o *  lam    | 
B2 c2{d}cB c2cB BcdB B2z2  | Bcd2 c2d3cd2 e2d2 z2 | 
w:  Şın gır *  *  *  dak lı  *  maş_ *  o *  lam    |  E lem_ oy nar  dil da  dil dat di    | 
AB c2B2 c3B c2d2 B2z2  | Bcdc dcde dcd2 efd4 | 
w:  Ki bar_ oy nar  dil de  dil dat di    |  ARANAĞME  | 
AB cdcB cdcB c2d2 B4  | Bcdc dcde dcd2 efd4 | 
w:   |  ARANAĞME  | 
AB cdcB cdcB c2d2 B4  | d2g2 fge2 edcd efd2 z2 | 
w:   |  Cep ke *  *  ni ne  *  kol_ *  o *  lam    | 
d2 g2fg e2ed cdef d2z2  | B2c2 {d}cBc2 {d}cBBc d2B2 z2 | 
w:  Cep ke *  *  ni ne  *  kol_ *  o *  lam    |  Men di *  *  *  li *  ne  *  pul_ *  o lam    | 
B2 c2{d}cB c2{d}cB Bcd2 B2z2  | B2d2 c2d2 dcd2 efd4 | 
w:  Men di *  *  *  li *  ne  *  pul_ *  o lam    |  A ya ğı nın  al *  tın *  *  da    | 
B2 d2c2 d2dc d2ef d4  | B2c2 {d}cBc2 cBBc dBB2 z2 | 
w:  A ya ğı nın  al *  tın *  *  da    |  To zup  *  *  *  gi den  *  yol_ *  o *  lam    | 
B2 c2{d}cB c2cB BcdB B2z2  | Bcd2 c2d3cd2 e2d2 z2 | 
w:  To zup  *  *  *  gi den  *  yol_ *  o *  lam    |  E lem_ oy nar  dil da  dil dat di    | 
AB c2B2 c3B c2d2 B2z2  | |


